X: 16
M: 6/8
L: 1/8
K: F
|:\
fgf cdc | agf g2f | edc dcB | c3 c3 :|
|:\
ecA dBG | cAF G2A | Bcd cde | f3 F3 |]
